_includes/icons/ios-xls.svg

<svg fill="#666" height="50" viewBox="0 0 50 50" width="50" xmlns="http://www.w3.org/2000/svg"><path d="m7 2v46h36v-32.589844l-13.816406-13.410156zm2 2h19v13h13v29h-32zm21 1.578125 9.707031 9.421875h-9.707031zm1.621094 17.886719c-2.113281 0-3.195313 1.351562-3.195313 2.972656 0 .910156.527344 1.976563 1.90625 2.816406.855469.554688 1.304688.914063 1.304688 1.652344 0 .65625-.449219 1.140625-1.378906 1.140625-.570313 0-1.261719-.167969-1.664063-.390625l-.285156 1.691406c.328125.195313 1.121094.40625 1.933594.40625 1.980468 0 3.347656-1.214843 3.347656-3.058593 0-1.066407-.496094-2.085938-1.832031-2.898438-1.09375-.65625-1.394532-.972656-1.394532-1.574219 0-.539062.402344-1.050781 1.246094-1.050781.566406 0 1.003906.167969 1.285156.347656l.320313-1.695312c-.300781-.179688-.933594-.359375-1.59375-.359375zm-15.449219.089844 1.816406 4.933593-1.890625 5.175782h1.949219l.542969-1.828125c.148437-.570313.3125-1.183594.476562-1.832032h.03125c.179688.648438.34375 1.214844.539063 1.800782l.644531 1.859375h2.027344l-1.996094-5.085938 1.890625-5.023437h-1.964844l-.507812 1.847656c-.136719.550781-.257813 1.03125-.421875 1.644531h-.027344c-.167969-.566406-.300781-1.09375-.46875-1.617187l-.582031-1.875zm6.945313.003906v10.105469h4.558593v-1.664063h-2.59375v-8.441406z"/></svg>

<svg xmlns="http://www.w3.org/2000/svg" viewBox="0 0 50 50" width="50" height="50" fill="#666"><path d="M 7 2 L 7 48 L 43 48 L 43 15.410156 L 29.183594 2 Z M 9 4 L 28 4 L 28 17 L 41 17 L 41 46 L 9 46 Z M 30 5.578125 L 39.707031 15 L 30 15 Z M 31.621094 23.464844 C 29.507813 23.464844 28.425781 24.816406 28.425781 26.4375 C 28.425781 27.347656 28.953125 28.414063 30.332031 29.253906 C 31.1875 29.808594 31.636719 30.167969 31.636719 30.90625 C 31.636719 31.5625 31.1875 32.046875 30.257813 32.046875 C 29.6875 32.046875 28.996094 31.878906 28.59375 31.65625 L 28.308594 33.347656 C 28.636719 33.542969 29.429688 33.753906 30.242188 33.753906 C 32.222656 33.753906 33.589844 32.539063 33.589844 30.695313 C 33.589844 29.628906 33.09375 28.609375 31.757813 27.796875 C 30.664063 27.140625 30.363281 26.824219 30.363281 26.222656 C 30.363281 25.683594 30.765625 25.171875 31.609375 25.171875 C 32.175781 25.171875 32.613281 25.339844 32.894531 25.519531 L 33.214844 23.824219 C 32.914063 23.644531 32.28125 23.464844 31.621094 23.464844 Z M 16.171875 23.554688 L 17.988281 28.488281 L 16.097656 33.664063 L 18.046875 33.664063 L 18.589844 31.835938 C 18.738281 31.265625 18.902344 30.652344 19.066406 30.003906 L 19.097656 30.003906 C 19.277344 30.652344 19.441406 31.21875 19.636719 31.804688 L 20.28125 33.664063 L 22.308594 33.664063 L 20.3125 28.578125 L 22.203125 23.554688 L 20.238281 23.554688 L 19.730469 25.402344 C 19.59375 25.953125 19.472656 26.433594 19.308594 27.046875 L 19.28125 27.046875 C 19.113281 26.480469 18.980469 25.953125 18.8125 25.429688 L 18.230469 23.554688 Z M 23.117188 23.558594 L 23.117188 33.664063 L 27.675781 33.664063 L 27.675781 32 L 25.082031 32 L 25.082031 23.558594 Z"/></svg>
